X: 34059
T: Reel De La Main Blanche
R: reel
M: 4/4
K: Gmajor
d2e2f2|g2 Bc BAGB|d2de dBGB|(3ccc Ac BAGB|AGFG A2z|
zd2e2f2|g2 Bc BAGB|d2de dBGB|(3ccc Ac BAGB|AGFA G2z:|
g2 gg ~g2fg|a4a4|a2aa ~a2ga|b4b4|
b2a2g2f2|e2d2 BcdB|cBAc BAGB|AGFA G2z:|

